raw-svg/step-backward.svg

<svg viewBox="0 0 24 24" xmlns="http://www.w3.org/2000/svg"><path d="m16 19.75a.77.77 0 0 1 -.53-.22l-7-7a.75.75 0 0 1 0-1.06l7-7a.75.75 0 0 1 .82-.16.74.74 0 0 1 .46.69v14a.74.74 0 0 1 -.46.69.75.75 0 0 1 -.29.06zm-5.94-7.75 5.19 5.19v-10.38z"/><path d="m8 19.75a.76.76 0 0 1 -.75-.75v-14a.75.75 0 0 1 1.5 0v14a.76.76 0 0 1 -.75.75z"/></svg>

<svg xmlns="http://www.w3.org/2000/svg" viewBox="0 0 24 24"><g id="step-backward"><g id="_Path_" data-name="&lt;Path&gt;"><path d="M16,19.75a.77.77,0,0,1-.53-.22l-7-7a.75.75,0,0,1,0-1.06l7-7a.75.75,0,0,1,.82-.16.74.74,0,0,1,.46.69V19a.74.74,0,0,1-.46.69A.75.75,0,0,1,16,19.75ZM10.06,12l5.19,5.19V6.81Z"/></g><path d="M8,19.75A.76.76,0,0,1,7.25,19V5a.75.75,0,0,1,1.5,0V19A.76.76,0,0,1,8,19.75Z"/></g></svg>
